X:1
T:G. A. Macfarren
T:Thy Life Was Given
%%score { ( 1 2 ) | ( 3 4 ) }
L:1/8
Q:1/4=184
M:4/2
K:F
V:1 treble 
V:2 treble 
V:3 bass 
V:4 bass 
V:1
"^Presto" F4 | B4 G4 A4 F4 | D12 d4 | c4 A4 B4 G4 | (G8 A4) F4 | F12 F4 | c4 A4 F4 c4 | %7
 c4 G4 G4 F4 | E12 F4 | B4 G4 A4 F4 | D8 d6 B2 | c8 A4 G4 | A12 | F4 | B4 G4 A4 F4 | D12 d4 | %16
 c4 A4 B4 G4 | (G8 A4) F4 | F12 F4 | c4 A4 F4 c4 | c4 G4 G4 F4 | E12 F4 | B4 G4 A4 F4 | %23
 D4 E4 F4 G4 | (c8 F4) G4 | F16 | F8 F8 |] %27
V:2
 C4 | F4 C4 C4 C4 | D12 D4 | G4 F4 F4 E4 | (E8 F4) C4 | F12 F4 | F4 F4 F4 F4 | G4 G4 D4 D4 | %8
 E12 D4 | D4 D4 E4 D4 | D8 F6 F2 | F8 F4 E4 | F12 | C4 | F4 C4 C4 C4 | D12 D4 | G4 F4 F4 E4 | %17
 (E8 F4) C4 | F12 F4 | F4 F4 F4 F4 | G4 G4 D4 D4 | E12 D4 | D4 D4 E4 D4 | D4 C4 C4 D4 | F12 E4 | %25
 F16 | D8 C8 |] %27
V:3
 A,4 | B,4 C4 A,4 C4 | B,12 B,4 | C4 C4 D4 C4 | C12 A,4 | (A,4 B,4 C4) D4 | C4 C4 C4 A,4 | %7
 C4 C4 =B,4 B,4 | C12 A,4 | B,4 D4 ^C4 A,4 | B,8 D6 D2 | C8 C4 C4 | C12 | A,4 | B,4 C4 A,4 C4 | %15
 B,12 B,4 | C4 C4 D4 C4 | C12 A,4 | (A,4 B,4 C4) D4 | C4 C4 C4 A,4 | C4 C4 =B,4 B,4 | C12 A,4 | %22
 B,4 D4 ^C4 A,4 | B,4 C4 C4 B,4 | (A,8 C4) B,4 | A,16 | B,8 A,8 |] %27
V:4
 F,4 | D,4 E,4 F,4 A,4 | B,12 G,4 | E,4 F,4 B,,4 C,4 | F,12 F,4 | (F,4 G,4 A,4) B,4 | %6
 A,4 F,4 A,4 F,4 | E,6 F,2 G,4 G,4 | C,12 F,4 | G,,4 B,,4 A,,4 D,4 | B,,8 B,6 G,2 | A,8 C,4 C,4 | %12
 F,12 | F,4 | D,4 E,4 F,4 A,4 | B,12 G,4 | E,4 F,4 B,,4 C,4 | F,12 F,4 | (F,4 G,4 A,4) B,4 | %19
 A,4 F,4 A,4 F,4 | E,6 F,2 G,4 G,4 | C,12 F,4 | G,,4 B,,4 A,,4 D,4 | B,,4 B,4 A,4 G,4 | C,12 C,4 | %25
 F,16 | B,,8 F,8 |] %27

